X:1
T:Title
%%score { ( 1 3 4 ) | 2 }
L:1/8
M:4/4
K:Db
V:1 treble nm="Grand Piano"
V:3 treble 
V:4 treble 
V:2 bass 
V:1
 z4 z2[Q:1/4=100] [F,D]2 | [A,DF]2 [A,DF]2 [A,EG]2 [CE]2 | [F,D]2 [F,D]4[K:treble] z F | %3
 [A,CA]2 [CA]2 [CB]2 [EA]2 |[M:3/4] F6 |[M:1/4] F2 |[M:4/4] G2 F2 B2 A2 | A4 z4 | E2 E2 F2 =G2 | %9
[M:3/4] [CA]6 |[M:1/4] A2 |[M:4/4] B2 A2 [GB]2 [Gc]2 | [Fd]4 [FA]2 [FA]2 | %13
 [GB]2 [Ad]2 [=Gc]2 [GB]2 |[M:3/4] A6 |[M:1/4] G2 |[M:4/4] F2 A2 [Ad]2 [Af]2 | e2 d2 c2 B2 | %18
 A d3 [EGd]3 [Gc] | [Fd]6 z2 | [Ae] [Ae]3 [Ad]2 [Ge]2 | [Ff]6 z2 | [Ae] [Ae]3 [=Gd]2 [GB]2 | %23
 A6 z2 | F2 A2 [Ad]2 [Af]2 | e2 d2 c2 B2 | A d3 [EGd]3 [Gc] |[M:3/4] [Fd]6 |] %28
V:2
 z4 z2 D,2 | D,2 D,2 A,,2 A,,2 | D,2 D,4 F,D, | A,,2 [A,,E,]2 [A,,E,]2 [C,A,]2 |[M:3/4] [D,A,D]6 | %5
[M:1/4] [D,A,D]2 |[M:4/4] [D,B,D]2 [D,A,D]2 [G,D]2 [F,A,D]2 | [E,B,D]2 A,,2 [D,D]2 [D,A,D]2 | %8
 [E,A,C]2 [E,A,C]2 [E,D]2 [E,B,D]2 |[M:3/4] [A,,A,]6 |[M:1/4] [D,F,D]2 | %11
[M:4/4] [G,D]2 [F,A,D]2 [E,C]2 [E,A,]2 | [D,A,]4 [D,D]2 [D,D]2 | [G,D]2 [F,D]2 [E,E]2 [E,D]2 | %14
[M:3/4] [A,C]2 G,2 F,2 |[M:1/4] [E,A,C]2 |[M:4/4] [D,A,D]2 [G,CE]2 [F,D]2 [D,_C]2 | %17
 [G,B,G]2 [G,B,G]2 [G,CG]2 [G,D_F]2 | [A,DF] [A,F]3[K:bass] A,,3 [A,,A,] | [D,A,]6 z2 | %20
 [A,C] [A,C]3 [F,D]2 [E,C]2 | [D,D]6 z2 | [E,C] [E,C]3 [E,B,]2 [E,D]2 | [A,C]2 G,2 F,2 [E,A,C]2 | %24
 [D,A,D]2 [G,CE]2 [F,D]2 [D,_C]2 | [G,B,G]2 [G,B,G]2 [G,CG]2 [=G,D_F]2 | %26
 [A,DF] [A,F]3[K:bass] A,,3 [A,,A,] |[M:3/4] [D,A,]6 |] %28
V:3
 x8 | x8 | z4 z2[K:treble] [A,D]2 | x8 |[M:3/4] x6 |[M:1/4] x2 |[M:4/4] x8 | z2 z G F2 F2 | x8 | %9
[M:3/4] x6 |[M:1/4] x2 |[M:4/4] x8 | x8 | x8 |[M:3/4] z2 E2 D2 |[M:1/4] x2 |[M:4/4] x8 | x8 | x8 | %19
 x8 | x8 | x8 | x8 | z2 E2 D2 G2 | x8 | x8 | x8 |[M:3/4] x6 |] %28
V:4
 x8 | x8 | x6[K:treble] x2 | x8 |[M:3/4] x6 |[M:1/4] x2 |[M:4/4] x8 | z2 [CE]2 z4 | x8 | %9
[M:3/4] x6 |[M:1/4] x2 |[M:4/4] x8 | x8 | x8 |[M:3/4] x6 |[M:1/4] x2 |[M:4/4] x8 | x8 | x8 | x8 | %20
 x8 | x8 | x8 | x8 | x8 | x8 | x8 |[M:3/4] x6 |] %28

